X:1
T:Title
%%score { ( 1 4 ) | ( 2 3 ) }
L:1/8
M:4/4
K:Ab
V:1 treble nm="Grand Piano"
V:4 treble 
V:2 bass 
V:3 bass 
V:1
 z4 z2[Q:1/4=100] [CA]>[DB] | [Ec]2 [Ec]2 [Ec]2 [Fd]>[Ec] | [DB]2 [FA]2 [DF]2 [EA]>[Ec] | %3
 [=DB]2 [FB]2 B2 B2 | c4 e2 e>d | c2 c2 c2 [EB]>[EA] |[M:3/4] [DF]2 [FA]2 [FA]2 | %7
[M:1/4] [Ed]>[Ed] |[M:4/4] [Ec]3 [DFB] [CEA]2 [B,EG]2 |[M:3/4] [CEA]6 |[M:1/4] c>d | %11
[M:4/4] e2 e2 c2 [Ac]>[GB] | A6 z2 | [Fd]2 [Fd]2 B2 e>d | c6 z2 | c2 e2 c2 [EB]>[EA] | %16
[M:9/8] [DF]2 [FA]- [FA] [Fd]2- [Fd] [Ed]2 |[M:4/4] [Ec]3 [DFB] [CEA]2 [B,EG]2 |[M:3/4] [CEA]6 |] %19
V:2
 z4 z2 [A,,A,]>[A,,A,] | [A,,A,]2 [A,,A,]2 [A,,A,]2 [A,,A,]>[A,,A,] | %2
 [D,F,]2 [D,A,]2 [D,A,]2 [C,A,]>[A,,A,] | [B,,F,]2 [B,,A,]2 [E,G,E]2 [E,G,E]2 | [A,E]6 z2 | %5
 [A,E]2[K:bass] [A,E]2 [A,E]2 [C,A,]>[C,A,] |[M:3/4] [D,A,]2 [D,A,]2 [D,A,]2 | %7
[M:1/4] [B,,G,]>[B,,G,] |[M:4/4] [C,A,]3 D, E,2 E,2 |[M:3/4] A,,6 |[M:1/4] [A,E]>[A,B,E] | %11
[M:4/4] [A,CE]2 [A,CE]2 [A,E]2 [E,E]>[E,D] | [F,CF]2 [F,C]2 [F,C]2 [D,B,]>[C,=A,] | %13
 [B,,B,]2 [B,,B,]2 [E,G,E]2 [E,CE]>[E,B,E] | [A,E]2 A,2 A,2 [A,C]>[A,D] | %15
 [A,E]2 [G,B,E]2 [A,E]2 [C,A,]>[C,A,] |[M:9/8] [D,A,]2 [D,D]- [D,D] [D,A,]2- [D,A,] [B,,G,]2 | %17
[M:4/4] [C,A,]3 D, E,2 E,2 |[M:3/4] A,,6 |] %19
V:3
 x8 | x8 | x8 | x8 | z4 C2 [A,CE]>[G,B,E] | x2[K:bass] x6 |[M:3/4] x6 |[M:1/4] x2 |[M:4/4] x8 | %9
[M:3/4] x6 |[M:1/4] x2 |[M:4/4] x8 | x8 | x8 | x8 | x8 |[M:9/8] x9 |[M:4/4] x8 |[M:3/4] x6 |] %19
V:4
 x8 | x8 | x8 | x8 | x8 | x8 |[M:3/4] x6 |[M:1/4] x2 |[M:4/4] x8 |[M:3/4] x6 |[M:1/4] x2 | %11
[M:4/4] x8 | z2 F2 F2 [FB]>[Fc] | x8 | z2 E2 E2 A>B | x8 |[M:9/8] x9 |[M:4/4] x8 |[M:3/4] x6 |] %19

